X:91
T:Lord Cornwalls March. LIT.091
M:4/4
Q:1/4=130
L:1/8
B:Wm. Litten MS, 1802
Z:Village Music Project 2017 Anne Wride
K:D
N: Changed rhythm in first two bars as was written at half time
A | d2d2 e2e2 | a3f d2A2 | B3c edcB | BA AA A2 af | g2e>e e2g>e | a2 ff f2A2 |Bega f2e2 | d2 dd d2 :|
A | e2 ee f2 f>f | a3g gfed | e2 e>e bged | c2e>e eABc | d3c cBBA | B3A AGGF | Bege d2 c2 | d2 dd d2 :|

